packages/ui-icons/src/Service-logos/24/Boom_direct_url.svg

<svg viewBox="0 0 32 32" fill="none" xmlns="http://www.w3.org/2000/svg">
<path d="M16 28C22.6274 28 28 22.6274 28 16C28 9.37258 22.6274 4 16 4C9.37258 4 4 9.37258 4 16C4 22.6274 9.37258 28 16 28Z" fill="white"/>
<path d="M19.23 15.668C19.251 15.688 19.27 15.717 19.293 15.722C19.577 15.793 19.81 15.961 20.049 16.111C20.272 16.248 20.57 16.619 20.668 16.851C20.741 17.024 20.794 17.203 20.831 17.391C20.86 17.534 20.854 17.673 20.861 17.814C20.869 17.959 20.884 18.11 20.855 18.25C20.835 18.354 20.835 18.46 20.805 18.562C20.724 18.847 20.639 19.13 20.489 19.392C20.334 19.662 20.154 19.912 19.917 20.111C19.747 20.254 19.577 20.404 19.364 20.487C19.292 20.516 19.241 20.579 19.157 20.591C19.082 20.602 19.015 20.649 18.942 20.675C18.869 20.7 18.772 20.695 18.722 20.742C18.652 20.807 18.55 20.736 18.502 20.82C18.5 20.823 18.488 20.82 18.481 20.821C18.297 20.835 18.116 20.86 17.934 20.86C15.938 20.863 13.941 20.862 11.944 20.862H11.73V11.263H11.94C13.922 11.263 15.905 11.266 17.887 11.259C18.152 11.258 18.397 11.328 18.642 11.404C19.086 11.544 19.444 11.823 19.742 12.171C19.997 12.47 20.167 12.821 20.277 13.2C20.323 13.358 20.367 13.519 20.362 13.687C20.36 13.833 20.362 13.979 20.362 14.125C20.362 14.399 20.19 14.814 20.024 15.05C19.837 15.316 19.494 15.543 19.23 15.668ZM15.441 18.149H16.507C16.587 18.149 16.662 18.139 16.742 18.113C16.8817 18.0677 16.9983 17.9698 17.067 17.84C17.1514 17.7006 17.1776 17.5336 17.14 17.375C17.084 17.131 16.8 16.94 16.538 16.939H15.442V18.149H15.441ZM15.441 14.936C15.801 14.936 16.148 14.935 16.494 14.937C16.5738 14.937 16.6507 14.9074 16.71 14.854C16.7788 14.7991 16.8323 14.7274 16.8652 14.6457C16.8982 14.5641 16.9095 14.4753 16.898 14.388C16.884 14.21 16.663 13.981 16.485 13.978C16.139 13.972 15.793 13.976 15.442 13.976V14.936H15.441ZM16.001 5.92C17.325 5.91771 18.6364 6.17745 19.8596 6.68427C21.0828 7.19108 22.1936 7.93495 23.128 8.873C24.066 9.80735 24.8098 10.9182 25.3165 12.1414C25.8232 13.3646 26.0826 14.676 26.08 16C26.0824 17.3242 25.8227 18.6358 25.3159 19.8591C24.8091 21.0825 24.0652 22.1935 23.127 23.128C22.1921 24.0652 21.0811 24.8085 19.858 25.3151C18.635 25.8217 17.3238 26.0817 16 26.08C14.676 26.0818 13.3647 25.8219 12.1414 25.3153C10.9182 24.8087 9.80707 24.0654 8.872 23.128C7.93414 22.1933 7.19048 21.0823 6.68384 19.8589C6.17721 18.6356 5.91761 17.3241 5.92 16C5.92 14.638 6.186 13.318 6.712 12.077C7.21737 10.879 7.951 9.79079 8.872 8.873C9.80652 7.93483 10.9175 7.19089 12.1409 6.68408C13.3642 6.17726 14.6768 5.91758 16.001 5.92ZM16 4C9.371 4 4 9.373 4 16C4 22.627 9.372 28 16 28C22.625 28 28 22.627 28 16C28 9.373 22.625 4 16 4Z" fill="#F54650"/>
</svg>

<svg viewBox="0 0 32 32" xmlns="http://www.w3.org/2000/svg" xmlns:xlink="http://www.w3.org/1999/xlink"><defs><radialGradient cx="25.916%" cy="74.438%" fx="25.916%" fy="74.438%" r="71.412%" gradientTransform="rotate(-46.448 .253 .747) scale(1 1.00709)" id="b"><stop stop-color="#FD568C" offset="0%"/><stop stop-color="#F13F34" offset="100%"/></radialGradient><path d="M19.23 15.668c.021.02.04.049.063.054.284.071.517.239.756.389.223.137.521.508.619.74.073.173.126.352.163.54.029.143.023.282.03.423.008.145.023.296-.006.436-.02.104-.02.21-.05.312-.081.285-.166.568-.316.83-.155.27-.335.52-.572.719-.17.143-.34.293-.553.376-.072.029-.123.092-.207.104-.075.011-.142.058-.215.084-.073.025-.17.02-.22.067-.07.065-.172-.006-.22.078-.002.003-.014 0-.021.001-.184.014-.365.039-.547.039-1.996.003-3.993.002-5.99.002h-.214v-9.599h.21c1.982 0 3.965.003 5.947-.004.265-.001.51.069.755.145.444.14.802.419 1.1.767.255.299.425.65.535 1.029.046.158.09.319.085.487-.002.146 0 .292 0 .438 0 .274-.172.689-.338.925-.187.266-.53.493-.794.618Zm-3.789 2.481h1.066c.08 0 .155-.01.235-.036a.565.565 0 0 0 .325-.273.621.621 0 0 0 .073-.465c-.056-.244-.34-.435-.602-.436h-1.096v1.21Zm0-3.213c.36 0 .707-.001 1.053.001a.323.323 0 0 0 .216-.083.511.511 0 0 0 .188-.466c-.014-.178-.235-.407-.413-.41-.346-.006-.692-.002-1.043-.002v.96Zm.56-9.016a10.035 10.035 0 0 1 7.127 2.953A10.031 10.031 0 0 1 26.08 16a10.035 10.035 0 0 1-2.953 7.128A10.049 10.049 0 0 1 16 26.08a10.049 10.049 0 0 1-7.128-2.952A10.038 10.038 0 0 1 5.92 16c0-1.362.266-2.682.792-3.923a10.023 10.023 0 0 1 2.16-3.204A10.035 10.035 0 0 1 16 5.92ZM16 4C9.371 4 4 9.373 4 16s5.372 12 12 12c6.625 0 12-5.373 12-12S22.625 4 16 4Z" id="a"/></defs><use fill="url(#b)" xlink:href="#a" fill-rule="evenodd"/></svg>
